X:164
%%pagewidth 9in
%%vocalfont Baskerville10Pro 14
T:What if a day, or a month or a year?
M:C
L:1/8
K:G
%%score 1 2
V:1 clef-treble
V:2 clef-bass octave=-1
V:1
"^p"E2^DE [DF]2EF|[EG]2FE[^DF]4|!<(![EG]2 FG [DFA]2GA|
w:What if a day, or a month, or a year, Crown thy de-lights with a
w:May not the change of a night or an hour, Cross thy de-lights with as
V:2
[GB]2x2B2x2&E4B,4|B2x2B4&E,4B,4|B2x6&E4D4|
V:1
[DGc]BAG [DFA]2!<)!"^p"A>A&x6E2|[^DA]2[EG]2[EF]2[DF]2|E4E4:||
w:thou-sand sweet con-tent-ings, a thous-and sweet con-ten-tings,
w:ma-ny sad tor-ment-ings, as ma-ny sad tor-men-tings,
V:2
G,4D2C2|B,4B,2B,2|E8:||
V:1
"^f"B3B A2F2&D4D4|G2(FE)[DF]4&B,4x4|B3c [Gd]2[Ge]2&D4x4|c4B4&G2F2G4|
w:For-tune, ho-nour, beau-*ty, youth, Are but blos-soms dy-ing; 
V:2
G4F2D2|E4D4|G4B,2C2|A,2D2G,2F,2|
V:1
"^p"B3B [CA]2[^DF]2&G4x4|G2(FE)[^D4F6]|B3c d2e2&E8|[EAc]4[^DFB]4||
w:Wan-ton plea-sures, do-*ting love, Are but sha-dows fly-ing. 
V:2
E,4A,2B,2|E4B,2A,2|^G,8|A,2F,2B,4||
V:1
"^pp"G3A B4&E4^D4|F3G A4&=D4^C4|E3F [B,G]2(FE)&=C4x2C2|(E2^D2)E4|
w:All your joys are but toys, I-dle thoughts de-*ceiv-*ing; 
V:2
E4B,4|D4A,4|C4G,2A,2|F4A4&B,4C2B,A,|
V:1
"^ff"G3A [B,^DFB]4&[B,E]2x6|F3G [A,^CEA]4&[A,=D]2x6|E3F [B,DG]2[CF]E&=C2x6|(E2^D2)D4||
w:None hath pow'r of an hour Of his life's be-*reav-*ing.
V:2
[E,E]4[B,,B,]4|[D,D]4[A,,A]4|G2x2[G,,G,]2[A,,A,]2&[C,C]4x4|[FB]2[FB]2[GB]4&[B,,B,]2[B,,B,]2E,4||

